src/styles/images/icons/close-cross.svg

<svg width="42" height="42" viewBox="0 0 42 42" fill="none" xmlns="http://www.w3.org/2000/svg">
<path d="M27.9482 20.878L40.2912 8.53598C42.2442 6.58298 42.2442 3.41698 40.2912 1.46498C38.3402 -0.487023 35.1722 -0.487023 33.2212 1.46498L20.8782 13.809L8.53524 1.46498C6.58424 -0.487023 3.41624 -0.487023 1.46524 1.46498C-0.487762 3.41798 -0.487762 6.58398 1.46524 8.53598L13.8072 20.878L1.46524 33.22C-0.487762 35.173 -0.487762 38.339 1.46524 40.291C2.44024 41.268 3.72124 41.755 5.00024 41.755C6.27824 41.755 7.56024 41.268 8.53524 40.291L20.8782 27.949L33.2212 40.292C34.1972 41.269 35.4772 41.756 36.7562 41.756C38.0352 41.756 39.3162 41.269 40.2912 40.292C42.2442 38.339 42.2442 35.173 40.2912 33.221L27.9482 20.878Z" fill="#822EED"/>
<path d="M27.9482 20.878L40.2912 8.53598C42.2442 6.58298 42.2442 3.41698 40.2912 1.46498C38.3402 -0.487023 35.1722 -0.487023 33.2212 1.46498L20.8782 13.809L8.53524 1.46498C6.58424 -0.487023 3.41624 -0.487023 1.46524 1.46498C-0.487762 3.41798 -0.487762 6.58398 1.46524 8.53598L13.8072 20.878L1.46524 33.22C-0.487762 35.173 -0.487762 38.339 1.46524 40.291C2.44024 41.268 3.72124 41.755 5.00024 41.755C6.27824 41.755 7.56024 41.268 8.53524 40.291L20.8782 27.949L33.2212 40.292C34.1972 41.269 35.4772 41.756 36.7562 41.756C38.0352 41.756 39.3162 41.269 40.2912 40.292C42.2442 38.339 42.2442 35.173 40.2912 33.221L27.9482 20.878Z" fill="url(#paint0_linear)"/>
<defs>
<linearGradient id="paint0_linear" x1="20.8782" y1="0.000976562" x2="20.8782" y2="41.756" gradientUnits="userSpaceOnUse">
<stop stop-color="#FF0000"/>
<stop offset="1" stop-color="#822EED" stop-opacity="0"/>
</linearGradient>
</defs>
</svg>

<?xml version="1.0" encoding="iso-8859-1"?>
<!-- Generator: Adobe Illustrator 16.0.0, SVG Export Plug-In . SVG Version: 6.00 Build 0)  -->
<svg version="1.1" id="Capa_1" xmlns="http://www.w3.org/2000/svg" xmlns:xlink="http://www.w3.org/1999/xlink" x="0px" y="0px"
	 width="41.756px" height="41.756px" viewBox="0 0 41.756 41.756" style="enable-background:new 0 0 41.756 41.756;"
	 xml:space="preserve">
<g>
	<path d="M27.948,20.878L40.291,8.536c1.953-1.953,1.953-5.119,0-7.071c-1.951-1.952-5.119-1.952-7.07,0L20.878,13.809L8.535,1.465
		c-1.951-1.952-5.119-1.952-7.07,0c-1.953,1.953-1.953,5.119,0,7.071l12.342,12.342L1.465,33.22c-1.953,1.953-1.953,5.119,0,7.071
		C2.44,41.268,3.721,41.755,5,41.755c1.278,0,2.56-0.487,3.535-1.464l12.343-12.342l12.343,12.343
		c0.976,0.977,2.256,1.464,3.535,1.464s2.56-0.487,3.535-1.464c1.953-1.953,1.953-5.119,0-7.071L27.948,20.878z"  fill="#822EED"/>
</g>
</svg>
